src/assets/images/template_image/3.svg

<svg width="48" height="48" viewBox="0 0 48 48" fill="none" xmlns="http://www.w3.org/2000/svg"><path opacity=".2" d="M24 46C36.1503 46 46 36.1503 46 24 46 11.8497 36.1503 2 24 2 11.8497 2 2 11.8497 2 24 2 36.1503 11.8497 46 24 46z" fill="#7c72f2"/><path d="M23.7471 27.2439 24.8702 28.9287C25.4405 29.7846 26.5034 30.1266 27.4435 29.8112L33.4565 27.8069V32.1671C33.4565 32.4888 33.2509 32.774 32.946 32.8754L23.987 35.8622C23.9629 35.8703 23.9389 35.8768 23.9141 35.8827 23.8586 35.8951 23.8032 35.9016 23.7471 35.9016 23.6945 35.9016 23.6413 35.8958 23.5888 35.8848L23.5876 35.8842 23.5468 35.8742 23.5063 35.8615 14.548 32.8754C14.2432 32.774 14.0375 32.4888 14.0375 32.1671V27.8068L20.0468 29.8098C20.9929 30.1281 22.0546 29.783 22.6237 28.9287L23.7471 27.2439zM26.1131 12.3338C26.2998 12.0537 26.6485 11.9311 26.9709 12.0398L35.9833 15.0274C36.2043 15.1003 36.3779 15.2732 36.4538 15.4935 36.5289 15.7137 36.4975 15.9559 36.3685 16.1499L33.6073 20.2169 36.3685 24.284C36.4976 24.478 36.5289 24.7202 36.4538 24.9404 36.378 25.1607 36.2043 25.3336 35.9834 25.4065L26.9709 28.3941C26.6541 28.5007 26.3011 28.382 26.1131 28.1001L23.747 24.551 21.3809 28.1001C21.1931 28.3817 20.8403 28.5007 20.5231 28.3941L11.5106 25.4065C11.2897 25.3336 11.116 25.1607 11.0402 24.9404 10.9651 24.7202 10.9964 24.478 11.1255 24.284L13.8867 20.217 11.1255 16.1499C10.9964 15.9559 10.965 15.7137 11.0401 15.4935 11.116 15.2732 11.2896 15.1003 11.5106 15.0274L20.523 12.0398C20.8411 11.9304 21.1926 12.0522 21.3808 12.3338L23.747 15.8829 26.1131 12.3338zM23.747 18.0164 17.1454 20.217 23.747 22.4175 30.3486 20.217 23.747 18.0164z" fill="#7c72f2"/></svg>

<svg width="48" height="48" fill="none" xmlns="http://www.w3.org/2000/svg"><path opacity=".2" d="M24 46c12.15 0 22-9.85 22-22S36.15 2 24 2 2 11.85 2 24s9.85 22 22 22z" fill="#7c72f2"/><path d="M23.747 27.244l1.123 1.685a2.24 2.24 0 002.573.882l6.013-2.004v4.36a.746.746 0 01-.51.708l-8.959 2.987a.829.829 0 01-.24.04.774.774 0 01-.158-.017h-.001l-.041-.01-.04-.014-8.959-2.986a.746.746 0 01-.51-.708v-4.36l6.009 2.003a2.238 2.238 0 002.577-.881l1.123-1.685zm2.366-14.91a.743.743 0 01.858-.294l9.012 2.987a.746.746 0 01.386 1.123l-2.762 4.067 2.761 4.067a.748.748 0 01-.385 1.123l-9.012 2.987a.746.746 0 01-.858-.294l-2.366-3.549-2.366 3.55a.747.747 0 01-.858.293l-9.012-2.987a.746.746 0 01-.385-1.123l2.76-4.067-2.76-4.067a.748.748 0 01.385-1.123l9.012-2.987c.318-.11.67.012.858.294l2.366 3.549 2.366-3.55zm-2.366 5.682l-6.602 2.201 6.602 2.2 6.602-2.2-6.602-2.2z" fill="#7c72f2"/></svg>
